frontend/public/svg/gender symbols/transgender-2.svg

<svg width="129" height="149" viewBox="0 0 129 149" fill="none" xmlns="http://www.w3.org/2000/svg">
<g clip-path="url(#clip0)">
<path d="M26.3403 19.7341C27.6937 18.2954 28.6502 17.1948 29.6964 16.1899C31.691 14.2688 33.9892 13.8879 35.382 15.1737C36.9769 16.6459 36.7467 18.8054 34.5946 21.1006C33.5313 22.2354 32.2755 23.1903 30.7745 24.522L41.4788 33.5034C56.5312 23.5192 73.1898 22.3825 90.3957 31.7241L114.615 9.44198C112.925 9.51877 111.845 9.58053 110.766 9.61532C108.075 9.70195 105.384 9.78912 102.688 9.85278C101.064 9.89085 99.6429 9.40194 99.61 7.54057C99.5825 5.94107 100.782 5.24335 102.291 5.08057C108.759 4.37632 115.215 3.53768 121.697 3.00933C125.468 2.70216 126.744 4.01327 127.022 7.83316C127.325 11.9733 127.512 16.1216 127.73 20.2677C127.778 20.9383 127.756 21.6121 127.664 22.278C127.559 23.2345 127.107 24.1194 126.393 24.765C125.679 25.4105 124.754 25.7719 123.791 25.7809C122.886 25.6976 122.038 25.2987 121.397 24.6537C120.755 24.0087 120.359 23.1588 120.281 22.2524C120.234 21.362 120.278 20.469 120.413 19.5876C120.544 17.8208 120.689 16.0546 120.885 13.5559C111.677 21.3762 103.246 29.0213 95.3596 36.9617C97.2046 40.4567 99.1782 43.6095 100.6 46.9942C105.91 59.6346 105.203 72.2103 99.297 84.4307C94.9087 93.5118 87.0753 98.1692 77.4409 100.135C75.4791 100.535 73.5029 100.857 71.2313 101.272C71.463 106.927 71.6907 112.471 71.9336 118.44C74.5524 118.226 76.8561 118.011 79.1645 117.858C81.0468 117.655 82.9417 117.586 84.8339 117.652C85.5749 117.71 86.2732 118.024 86.8088 118.539C87.345 119.055 87.685 119.741 87.7717 120.479C88.0998 122.221 87.4619 123.766 85.8893 124.417C84.3344 125.009 82.6916 125.336 81.0285 125.386C78.2508 125.536 75.4588 125.428 72.4646 125.428C72.6739 129.694 72.8833 133.592 73.0467 137.492C73.1222 139.285 73.1898 141.085 73.0999 142.874C73.0277 143.874 72.7947 144.856 72.4101 145.783C72.1836 146.487 71.738 147.099 71.1381 147.532C70.5389 147.964 69.8162 148.194 69.0772 148.187C68.3368 148.216 67.607 148.004 66.9966 147.583C66.3869 147.162 65.9301 146.554 65.6944 145.852C65.2081 144.603 64.911 143.289 64.8124 141.953C64.5262 137.586 64.3805 133.21 64.1718 128.838C64.1245 127.854 64.0406 126.869 63.9494 125.505C61.4671 125.505 59.1409 125.544 56.8175 125.491C55.3573 125.481 53.8996 125.366 52.4561 125.147C50.2245 124.767 49.0662 123.371 49.2401 121.537C49.4029 119.821 50.5154 118.96 52.8769 118.909C55.6827 118.848 58.4912 118.904 61.2983 118.874C62.0597 118.866 62.8196 118.734 64.0548 118.611V101.547C61.7576 101.291 59.08 101.164 56.4697 100.672C41.183 97.7891 31.6056 87.7045 28.4283 71.7857C26.1757 60.4964 28.3128 50.1986 34.3898 40.5747C34.6241 40.2039 34.8152 39.8047 34.8257 39.787L25.4962 29.791C24.0575 31.1542 22.8052 32.3811 21.5044 33.5566C20.8435 34.1559 20.1557 35.0006 19.3799 35.1279C18.3399 35.3173 17.2666 35.1149 16.3668 34.56C15.2385 33.6937 15.495 32.2728 16.3056 31.2168C17.7994 29.2714 19.4234 27.4257 21.1922 25.2992L7.71932 11.4286L7.04218 11.684C7.21807 14.7688 7.50667 17.8537 7.52833 20.9385C7.50371 22.8295 7.29021 24.7133 6.89056 26.5618C6.81279 27.2467 6.47373 27.875 5.94422 28.3162C5.41471 28.7573 4.73552 28.977 4.04796 28.9299C2.45962 28.8787 1.62676 27.8301 1.31172 26.4039C0.940957 25.1164 0.750154 23.7837 0.745117 22.444C1.09298 17.0732 1.50065 11.7017 2.08151 6.35126C2.45496 2.90943 3.57735 1.92049 7.08418 1.69537C12.4565 1.35101 17.8341 1.09477 23.217 0.927185C26.4435 0.82939 28.2641 2.08973 28.2962 4.106C28.3304 6.25879 26.2722 7.51884 22.9439 7.297C19.867 7.09157 16.7952 6.80991 13.7209 6.56182C13.6151 6.81779 13.5097 7.07404 13.4046 7.33001L26.3403 19.7341ZM61.5432 33.3301C57.8434 32.8457 52.9082 34.8023 48.1117 37.3883C43.3035 39.9057 39.4643 43.9445 37.1937 48.8742C32.489 58.8663 33.5373 68.7737 37.5587 78.5604C41.0084 86.9563 47.4232 92.0153 56.3297 93.8124C64.57 95.4755 72.6595 94.6334 80.5487 91.9142C82.9738 91.1417 85.2113 89.8717 87.118 88.1862C89.0253 86.5014 90.5604 84.4372 91.6257 82.1256C97.5222 69.1761 97.1941 56.4694 89.2563 44.3435C87.202 41.2056 84.5727 38.5295 81.1039 36.9832C75.5034 34.4884 69.5845 33.336 61.5458 33.3301H61.5432Z" fill="black"/>
</g>
<defs>
<clipPath id="clip0">
<rect width="127.986" height="148.332" fill="white" transform="translate(0.112305 0.471191)"/>
</clipPath>
</defs>
</svg>

<svg xmlns="http://www.w3.org/2000/svg" width="129" height="149" fill="none" viewBox="0 0 129 149"><g clip-path="url(#a)"><path fill="#000" d="M26.34 19.734c1.354-1.439 2.31-2.54 3.356-3.544 1.995-1.921 4.293-2.302 5.686-1.016 1.595 1.472 1.365 3.631-.787 5.927-1.064 1.134-2.32 2.09-3.82 3.421l10.704 8.981c15.052-9.984 31.71-11.12 48.917-1.779l24.219-22.282c-1.69.077-2.77.139-3.849.173-2.691.087-5.382.174-8.078.238-1.624.038-3.045-.451-3.078-2.312-.028-1.6 1.172-2.298 2.681-2.46 6.468-.705 12.924-1.543 19.406-2.072 3.771-.307 5.047 1.004 5.325 4.824.303 4.14.49 8.289.708 12.435.048.67.026 1.344-.066 2.01a3.93 3.93 0 0 1-3.873 3.503 3.88 3.88 0 0 1-2.394-1.127 3.88 3.88 0 0 1-1.116-2.402c-.047-.89-.003-1.783.132-2.664.131-1.767.276-3.533.472-6.032-9.208 7.82-17.639 15.465-25.525 23.406 1.845 3.495 3.818 6.647 5.24 10.032 5.31 12.64 4.603 25.216-1.303 37.437-4.388 9.08-12.222 13.738-21.856 15.704-1.962.4-3.938.722-6.21 1.137.232 5.655.46 11.199.703 17.168 2.618-.214 4.922-.429 7.23-.582a40 40 0 0 1 5.67-.206 3.21 3.21 0 0 1 2.938 2.827c.328 1.742-.31 3.287-1.883 3.938a14.9 14.9 0 0 1-4.86.969c-2.778.15-5.57.042-8.564.042.209 4.266.418 8.164.582 12.064.075 1.793.143 3.593.053 5.382a9.4 9.4 0 0 1-.69 2.909 3.47 3.47 0 0 1-3.333 2.404 3.43 3.43 0 0 1-3.383-2.335 13.5 13.5 0 0 1-.882-3.899c-.286-4.367-.431-8.743-.64-13.115-.047-.984-.131-1.969-.223-3.333-2.482 0-4.808.039-7.131-.014a30.5 30.5 0 0 1-4.362-.344c-2.232-.38-3.39-1.776-3.216-3.61.163-1.716 1.275-2.577 3.637-2.628 2.806-.061 5.614-.005 8.421-.035.762-.008 1.522-.14 2.757-.263v-17.064c-2.297-.256-4.975-.383-7.585-.875-15.287-2.883-24.864-12.968-28.042-28.886-2.252-11.29-.115-21.587 5.962-31.211.234-.371.425-.77.436-.788l-9.33-9.996c-1.438 1.363-2.69 2.59-3.992 3.766-.66.599-1.348 1.444-2.124 1.57a4.28 4.28 0 0 1-3.013-.567c-1.129-.866-.872-2.287-.061-3.343 1.493-1.946 3.117-3.791 4.886-5.918L7.72 11.43l-.677.255c.176 3.085.465 6.17.486 9.255a28.4 28.4 0 0 1-.637 5.623 2.677 2.677 0 0 1-2.843 2.368c-1.588-.051-2.421-1.1-2.736-2.526a14.5 14.5 0 0 1-.567-3.96c.348-5.37.756-10.742 1.337-16.093.373-3.442 1.495-4.43 5.002-4.656q8.059-.516 16.133-.768c3.227-.098 5.047 1.163 5.08 3.179.033 2.153-2.025 3.413-5.353 3.191-3.077-.205-6.149-.487-9.223-.735l-.316.768zM61.543 33.33c-3.7-.484-8.635 1.472-13.431 4.058a24.57 24.57 0 0 0-10.918 11.486c-4.705 9.992-3.657 19.9.365 29.686 3.45 8.396 9.864 13.455 18.77 15.252 8.241 1.663 16.33.821 24.22-1.898a18.3 18.3 0 0 0 11.077-9.789c5.896-12.949 5.568-25.656-2.37-37.781-2.054-3.138-4.683-5.815-8.152-7.36-5.6-2.496-11.52-3.648-19.558-3.654z"/></g><defs><clipPath id="a"><path fill="#fff" d="M.112.471h127.986v148.332H.112z"/></clipPath></defs></svg>
